X:1
T:Pollution
M:2/2
L:1/8
K:G
 G2 Bd-d d2 d| cc B2 A D3| F A2c-c e3| e d2B-B G3| G2 Bd-d gf g| a2 g e- e2 z2|\
 d2 dd dd d c-| c c2 F G2 G2| g3 e- e2 g2| f3d-d f f2| e2 e2 ec e2|\
 ^d4 z4| z2 e2 d2 c2| B3 G- G2 B2| c c2c-c B A2| G2 z2 z4|
